!!!COM: Palestrina, Giovanni Perluigi da
!!!OPR: Missa In festis Apostolorum (II)
!!!OMD: Sanctus
!!!OTL: First Section
**kern	**kern	**kern	**kern	**kern
*Ibass	*Itenor	*Itenor	*Icalto	*Icant
!Bassus	!Tenor 2	!Tenor 1	!Altus	!Cantus
*clefF4	*clefGv2	*clefGv2	*clefG2	*clefG2
*k[]	*k[]	*k[]	*k[]	*k[]
*D:dor	*D:dor	*D:dor	*D:dor	*D:dor
*M4/2	*M4/2	*M4/2	*M4/2	*M4/2
=1	=1	=1	=1	=1
0r	0r	0r	1A	0r
.	.	.	1d	.
=2	=2	=2	=2	=2
0r	1r	0r	1.f	1d
.	1D	.	.	1a
.	.	.	4e	.
.	.	.	4d	.
=3	=3	=3	=3	=3
0r	1A	0r	2e	1.cc
.	.	.	2f	.
.	[1c	.	[1e	.
.	.	.	.	4b
.	.	.	.	4a
=4	=4	=4	=4	=4
0r	2c]	0r	2e]	2.g
.	4B	.	4d	.
.	4A	.	4c	4f
.	2G	.	2e	2g
.	2F	.	2f	2a
=5	=5	=5	=5	=5
1r	1G	0r	2e	2g
.	.	.	1d	2f
1AA	1A	.	.	1e
.	.	.	2c#	.
=6	=6	=6	=6	=6
1D	0A	1r	0d	4d
.	.	.	.	4e
.	.	.	.	4f
.	.	.	.	4g
[1F	.	1D	.	[1a
=7	=7	=7	=7	=7
2F]	1F	1A	2r	2a]
4E	.	.	2.c	4g
4D	.	.	.	4f
2.C	1G	[1c	.	[1e
.	.	.	4d	.
.	.	.	[2e	.
4BB	.	.	.	.
=8	=8	=8	=8	=8
4C	2.G	2c]	4e]	1e]
4D	.	.	4f	.
1E	.	4B	2g	.
.	4A	4A	.	.
.	4B	2G	2e	2r
.	4c	.	.	.
4D	[2d	2F	2f	2a
4C	.	.	.	.
=9	=9	=9	=9	=9
1BB	2d]	1G	1d	4b
.	.	.	.	4cc
.	2D	.	.	4dd
.	.	.	.	4b
1AA	2E	1A	2r	2.cc
.	2C	.	2e	.
.	.	.	.	4b
=10	=10	=10	=10	=10
2.D	4D	1.A	2f	4a
.	4E	.	.	4g
.	4F	.	2d	1f
4E	4G	.	.	.
2F	4A	.	2c	.
.	4B	.	.	.
2C	2c	2G	2e	[2e
=11	=11	=11	=11	=11
1D	0A	1F	2f	4e]
.	.	.	.	4d
.	.	.	2d	1d
1AA	.	1E	2e	.
.	.	.	2A	2c#
=12	=12	=12	=12	=12
[0D	[0F#	[0D	[0A	[0d
=13	=13	=13	=13	=13
0D]	0F#]	0D]	0A]	0d]
=14	=14	=14	=14	=14
1D	0r	0r	0r	0r
1E	.	.	.	.
=15	=15	=15	=15	=15
1D	1A	0r	0r	0r
[1G	1B	.	.	.
=16	=16	=16	=16	=16
2G]	1.A	0r	1r	0r
4F	.	.	.	.
4E	.	.	.	.
2F	.	.	1d	.
2G	[2d	.	.	.
=17	=17	=17	=17	=17
4C	2d]	0r	1e	0r
4D	.	.	.	.
4E	1c	.	.	.
4F	.	.	.	.
2.G	.	.	1d	.
.	2B	.	.	.
4F	.	.	.	.
=18	=18	=18	=18	=18
4E	1c	0r	1g	0r
4D	.	.	.	.
2C	.	.	.	.
2D	1A	.	2f	.
2C	.	.	2e	.
=19	=19	=19	=19	=19
1D	2A	0r	2.f	1a
.	2d	.	.	.
.	.	.	4d	.
1G	4B	.	2d	1b
.	4A	.	.	.
.	4B	.	[2g	.
.	4c	.	.	.
=20	=20	=20	=20	=20
1D	1d	1A	2g]	1a
.	.	.	2f	.
1GG	2d	1B	1g	1dd
.	2G	.	.	.
=21	=21	=21	=21	=21
1AA	4E	1A	1c	1cc
.	4D	.	.	.
.	4E	.	.	.
.	4F	.	.	.
1r	1G	1d	2r	1b
.	.	.	2g	.
=22	=22	=22	=22	=22
2r	1A	1c	2e	2cc
1A	.	.	2f	2a
.	1E	1B	[1e	1b
2G#	.	.	.	.
=23	=23	=23	=23	=23
1A	2r	1c	1e]	2a
.	2.e	.	.	2.cc
1F	.	1A	1r	.
.	8d	.	.	4b
.	8c	.	.	.
.	2d	.	.	[2a
=24	=24	=24	=24	=24
0E	1e	0B	2r	2a]
.	.	.	2.e	4g#
.	.	.	.	4f#
.	1E	.	.	1g#
.	.	.	4d	.
.	.	.	2B	.
=25	=25	=25	=25	=25
1AA	2r	2.A	2.c#	[0a
.	1A	.	.	.
.	.	4B	4d	.
2r	.	2c#	2e	.
[2D	2A	[2d	[2f	.
=26	=26	=26	=26	=26
2D]	1A	4d]	2f]	1a_
.	.	4c#	.	.
2D	.	4d	2f	.
.	.	8c#	.	.
.	.	8B	.	.
1D	[1d	1A	1f	1a_
=27	=27	=27	=27	=27
1A	2d]	1r	1e	0a]
.	4c#	.	.	.
.	4B	.	.	.
[1A	1c#	2r	2.e	.
.	.	2e	.	.
.	.	.	4d	.
=28	=28	=28	=28	=28
2A]	2r	2A	4e	0r
.	.	.	4f	.
4G	2d	2B	2.g	.
4F	.	.	.	.
2E	2G	2c	.	.
.	.	.	4e	.
2D	2A	[2d	2f	.
=29	=29	=29	=29	=29
1G	2B	2d]	1.g	0r
.	2c	2e	.	.
1G	1d	4B	.	.
.	.	4c	.	.
.	.	[2d	2f	.
=30	=30	=30	=30	=30
2.A	2r	2d]	1e	1r
.	1A	2c#	.	.
4G	.	.	.	.
2F	.	1d	1d	2r
[2G	[2B-	.	.	[2d
=31	=31	=31	=31	=31
2G]	2B-]	2r	1r	2d]
4F#	4A	2.D	.	2d
4E	4G	.	.	.
2F#	2A	.	2r	1d
.	.	4D	.	.
2G	2B-	2G	[2d	.
=32	=32	=32	=32	=32
1D	2A	2F	4d]	1a
.	.	.	4d	.
.	1d	2D	2f	.
1r	.	2.A	2e	[1a
.	2c	.	4A	.
.	.	4G	4B	.
=33	=33	=33	=33	=33
0r	2A	2F	4c	2a]
.	.	.	4d	.
.	1c	4E	4e	4g
.	.	4D	4f	4f
.	.	2C	2.g	2e
.	2B	2G	.	2d
.	.	.	4f	.
=34	=34	=34	=34	=34
0r	2.c	2C	1e	1g
.	.	1c	.	.
.	4d	.	.	.
.	2e	.	2c	1g
.	[2d	2B	2d	.
=35	=35	=35	=35	=35
1.AA	2d]	0A	2e	1a
.	4c	.	1e	.
.	4B	.	.	.
.	2c	.	.	2r
2AA	4A	.	2c	[2a
.	4B	.	.	.
=36	=36	=36	=36	=36
1AA	4c	1r	1e	2a]
.	4d	.	.	.
.	4e	.	.	2a
.	4c	.	.	.
1D	2d	2r	[1f	1a
.	[2A	[2D	.	.
=37	=37	=37	=37	=37
0BB-	2A]	2D]	1f]	1dd
.	4G	2D	.	.
.	4F	.	.	.
.	2G	1D	1d	[1dd
.	[2F	.	.	.
=38	=38	=38	=38	=38
0AA	2F]	1A	2r	2dd]
.	4E	.	1e	4cc
.	4D	.	.	4b
.	[1E	[1A	.	2cc
.	.	.	2e	[2c
=39	=39	=39	=39	=39
1.C	1E]	2A]	1e	4c]
.	.	.	.	4d
.	.	4G	.	4e
.	.	4F	.	4f
.	2r	2E	2c	4g
.	.	.	.	4a
2BB	2G	2D	2d	2b
=40	=40	=40	=40	=40
1C	2E	1G	2e	2g
.	2E	.	2c	1cc
1GG	[1D	1G	2d	.
.	.	.	[2g	2b
=41	=41	=41	=41	=41
0D	2D]	[0A	2g]	[0a
.	2D	.	2.f	.
.	1F	.	.	.
.	.	.	4e	.
.	.	.	[2d	.
=42	=42	=42	=42	=42
0AA	0E	0A]	2d]	1a]
.	.	.	4c#	.
.	.	.	4B	.
.	.	.	2c#	1e
.	.	.	2c#	.
=43	=43	=43	=43	=43
[0D	[0D	[0A	[0d	[0f#
=44	=44	=44	=44	=44
0D]	0D]	0A]	0d]	0f#]
*-	*-	*-	*-	*-
!!!CDT: 1525/^1526/-1594/2/2
!!!OCY: Italia
!!!AGN: Mass (Paraphrase)
!!!AST: renaissance, vocal
!!!ASW: Gregorian Mass
!!!PWK: Masses, Book Mantuan II
!!!RNB: Cadence finals: A
!!!YOR: Le Opere Complete, v. 19, p. 1
!!!YOO: Rome, Italy: Fratelli Scalera
!!!END: 1992//
!!!EED: John Miller
!!!YEC: Copyright 2000, John Miller
!!!YEN: United States of America
!!!YEM: Rights to all derivative electronic formats reserved.
!!!YEM: Refer to licensing agreement for further details.
!!!YEM: This file must be accompanied by the licensing agreement.
!!!YEM: A copy of the licensing agreement may be found at http://www.music-cog.ohio-state.edu/HumdrumDatabases/Palestrina/license.txt
!!!EMD: converted to Humdrum by Bret Aarden
